X:1
T:Title
%%score 1 { 2 | 3 }
L:1/8
Q:1/4=108
M:6/8
K:G
V:1 treble nm="Grand Piano, Soprano"
V:2 treble nm="Choir Pad, From the Cyber Hymnal™"
V:3 bass 
V:1
 G2 [GA] [GB]2 [GB] | [GB]2 [GB] [FA] G2 | [DG]2 [DG] [DG]2 [EA] | [EG]2 [CE] [B,D]3 | %4
w: By~William~Thomas~Dale,~1909 * * *||||
 [B,D]2 [CE] [DG]2 [DG] | [DG]2 [FA] [GB] [GB]2 | G2 G [FA]2 [FA] | [FA]2 [GB] [FA]3 | %8
w: ||||
 [GB]2 [GB] [Gd]2 [Gd] | [Gd]2 [Ge] [Gd] [GB]2 | [GB]2 [FA] [EG]2 [EA] | [EG]2 [CE] [B,D]3 | %12
w: ||||
 [B,D]2 [CE] [DG]2 [DG] | [DG]2 [FA] [GB] [GB]2 | G2 G [FA]2 [FA] | [FA]2 [FB] G3 | %16
w: ||||
 [GB]2 [GB] [Gd]2 [Gd] | [Gd]2 [Ge] [Gd] [GB]2 | [GB]2 [FA] [EG]2 [EA] | [EG]2 [CE] [B,D]3 | %20
w: ||||
 [B,D]2 [CE] [DG]2 [DG] | [DG]2 [FA] [GB] [GB]2 | G2 G [FA]2 [FA] | [FA]2 [FB] G3- | G6 |] %25
w: |||||
V:2
 B,2 C D2 D | D2 D C[K:bass] B,2 | B,2 B, B,2 C | C2 G, G,3 | G,2 G, B,2 B, | D2 D D D2 | %6
 B,2 B, D2 D | D2 D D3 | G,2 G, B,2 B, | B,2[K:treble] C B, D2 | D2 C B,2 C | C2[K:bass] G, G,3 | %12
 G,2 G, B,2 B, | D2 D D D2 | B,2 B, D2 D | C2 D[K:bass] B,3 | G,2 G, B,2 B, | %17
 B,2[K:treble] C B, D2 | D2 C B,2 C | C2[K:bass] G, G,3 | G,2 G, B,2 B, | D2 D D D2 | B,2 B, D2 D | %23
 C2 D B,3- | B,6 |] %25
V:3
 G,2 G, G,2 G, | G,2 G, D, G,,2 | G,,2 G,, G,,2 G,, | C,2 C, G,,3 | G,,2 G,, G,,2 G,, | %5
 B,,2 D, G, G,2 | G,2 G, D,2 D, | D,2 D, D,3 | z3 G,2 G, | G,2 G, G, G,2 | G,2 D, E,2 C, | %11
 C,2 C, G,,3 | G,,2 G,, G,,2 G,, | B,,2 D, G, G,2 | G,2 G, D,2 D, | D,2 D, G,,3 | z3 G,2 G, | %17
 G,2 G, G, G,2 | G,2 D, E,2 C, | C,2 C, G,,3 | G,,2 G,, G,,2 G,, | B,,2 D, G, G,2 | G,2 G, D,2 D, | %23
 D,2 D, G,,3- | G,,6 |] %25

